X: 136004
Q: "Irish Jig."
M: 6/8
L: 1/8
K: D
uA |\
|: a |\
fdd ecc | dcB AFA | fda eca | dB^g ua2 u=g |\
fdd ecc | dcB AFE | DFA dAF | DED D2 :|


